X: 100080
M: 6/8
L: 1/8
K: G
u(dc) |\
|: B |\
[|\
(.G2.g) dcB | Bcd GAB | A2a- abg | fga def |\
gab afd | efg fdB | edc BcA | G3 G3 "_D.C."|]


